static/images/pieces/xiangqi/wikim/red_advisor.svg

<?xml version="1.0" encoding="UTF-8" standalone="no"?>
<svg
   width="100"
   height="100"
   version="1.1"
   id="svg927"
   sodipodi:docname="red_advisor.svg"
   viewBox="-6 -6 112 112"
   inkscape:version="1.2.2 (b0a8486541, 2022-12-01)"
   xmlns:inkscape="http://www.inkscape.org/namespaces/inkscape"
   xmlns:sodipodi="http://sodipodi.sourceforge.net/DTD/sodipodi-0.dtd"
   xmlns="http://www.w3.org/2000/svg"
   xmlns:svg="http://www.w3.org/2000/svg"
   xmlns:rdf="http://www.w3.org/1999/02/22-rdf-syntax-ns#"
   xmlns:cc="http://creativecommons.org/ns#"
   xmlns:dc="http://purl.org/dc/elements/1.1/">
  <defs
     id="defs931" />
  <sodipodi:namedview
     id="namedview929"
     pagecolor="#ffffff"
     bordercolor="#666666"
     borderopacity="1.0"
     inkscape:showpageshadow="2"
     inkscape:pageopacity="0.0"
     inkscape:pagecheckerboard="0"
     inkscape:deskcolor="#d1d1d1"
     showgrid="false"
     inkscape:zoom="2.36"
     inkscape:cx="50.211864"
     inkscape:cy="50"
     inkscape:window-width="1920"
     inkscape:window-height="1022"
     inkscape:window-x="0"
     inkscape:window-y="0"
     inkscape:window-maximized="1"
     inkscape:current-layer="svg927" />
  <title
     id="title919">仕</title>
  <!-- 此字型為全字庫正楷體，中華民國國家發展委員會，CNS11643中文標準交換碼全字庫網站，https://www.cns11643.gov.tw/。 -->
  <circle
     r="48.5"
     cx="50"
     cy="50"
     stroke-width="3"
     stroke="#000000"
     fill="#ffddaa"
     id="circle921" />
  <circle
     r="43.5"
     cx="50"
     cy="50"
     stroke-width="3"
     stroke="#cc0000"
     fill="none"
     id="circle923" />
  <path
     transform="translate(15,14)"
     fill="#cc0000"
     d="m 22.2,8.6 c -0.3,0.3 -0.5,1 -0.5,1.6 0,1.5 -1.5,5.7 -3.2,9.1 -2.6,5.2 -7.9,12.6 -12.9,17.9 -1.9,2.1 -2.5,2.8 -2.3,3.4 0.2,0.4 0.6,0.7 1.1,0.7 1.1,0 6.9,-4.2 10.2,-7.5 l 2.6,-2.5 -0.2,9.3 c -0.1,5.1 -0.4,10.2 -0.5,11.4 -0.8,4.9 -0.9,6 -0.2,7.8 1.3,3.4 2.5,4.3 3.9,2.8 1.5,-1.6 1.6,-2.4 1.7,-15 0.1,-10.7 0.3,-14.5 1,-16.8 0.2,-0.5 -0.2,-1.1 -1.2,-2.2 L 20.2,27 21.1,25.8 c 1,-1.2 3.3,-5.1 5.3,-8.7 0.7,-1.3 1.6,-2.6 2,-3 1.3,-1.2 1.5,-1.8 0.7,-2.9 C 27.3,8.7 23.5,7.3 22.2,8.6 m 16.3,2.2 c -0.3,0.7 -0.3,1.1 0.4,2.6 0.8,1.7 0.8,2.3 0.9,9.9 l 0.1,8 -7.2,1 c -8.2,1.2 -9.6,1.5 -9.6,2.2 0,1.5 1.2,2.3 4.1,3 1.5,0.3 2.3,0.2 5.6,-0.5 2.1,-0.5 4.6,-1 5.6,-1.1 l 1.9,-0.3 v 7.3 7.3 L 34.5,51 c -7.2,1.1 -7.2,1 -7.2,2 0,1.6 3.3,3.2 5.9,2.9 0.7,-0.1 4.3,-0.6 7.9,-1.1 3.7,-0.5 9.4,-1 12.8,-1.2 6.6,-0.4 7.2,-0.5 7.7,-1.5 0.5,-0.9 -0.6,-2.2 -3,-3.3 -2,-1 -3.5,-1 -7.3,-0.3 -1.5,0.3 -3.2,0.5 -3.9,0.5 h -1.2 v -7 c 0,-3.8 0.1,-7 0.3,-7.1 0.3,-0.2 5.2,-0.7 14.2,-1.3 6.2,-0.4 6.4,-0.5 6.7,-1.6 0.3,-1.1 -0.2,-1.7 -2.7,-3 -2.3,-1.2 -3.7,-1.2 -7.6,-0.5 -3.9,0.8 -10.3,1.6 -10.6,1.3 -0.1,-0.1 -0.1,-2.9 0,-6.2 0.3,-4.8 0.5,-6.3 1.1,-7.8 0.7,-1.7 0.7,-2 0.2,-2.7 -0.8,-1.2 -4.2,-2.7 -6.7,-2.9 -2,-0.1 -2.2,-0.1 -2.6,0.6"
     id="path925" />
  <metadata
     id="metadata15588">
    <rdf:RDF>
      <cc:Work
         rdf:about="">
        <dc:title>仕</dc:title>
      </cc:Work>
    </rdf:RDF>
  </metadata>
</svg>

<?xml version="1.0" encoding="UTF-8"?>
<svg width="100" height="100"
	xmlns="http://www.w3.org/2000/svg">
	<title>仕</title>
	<!-- 此字型為全字庫正楷體，中華民國國家發展委員會，CNS11643中文標準交換碼全字庫網站，https://www.cns11643.gov.tw/。 -->
	<circle r="48.5" cx="50" cy="50" stroke-width="3" stroke="#000" fill="#fda"/>
	<circle r="43.5" cx="50" cy="50" stroke-width="3" stroke="#c00" fill="none"/>
	<path transform="translate(15,14)" fill="#c00" d="M22.2 8.6 C21.9 8.9,21.7 9.6,21.7 10.2 C21.7 11.7,20.2 15.9,18.5 19.3 C15.9 24.5,10.6 31.9,5.6 37.2 C3.7 39.3,3.1 40.0,3.3 40.6 C3.5 41.0,3.9 41.3,4.4 41.3 C5.5 41.3,11.3 37.1,14.6 33.8 L17.2 31.3 17.0 40.6 C16.9 45.7,16.6 50.8,16.5 52.0 C15.7 56.9,15.6 58.0,16.3 59.8 C17.6 63.2,18.8 64.1,20.2 62.6 C21.7 61.0,21.8 60.2,21.9 47.6 C22.0 36.9,22.2 33.1,22.9 30.8 C23.1 30.3,22.7 29.7,21.7 28.6 L20.2 27.0 21.1 25.8 C22.1 24.6,24.4 20.7,26.4 17.1 C27.1 15.8,28.0 14.5,28.4 14.1 C29.7 12.9,29.9 12.3,29.1 11.2 C27.3 8.7,23.5 7.3,22.2 8.6 M38.5 10.8 C38.2 11.5,38.2 11.9,38.9 13.4 C39.7 15.1,39.7 15.7,39.8 23.3 L39.9 31.3 32.7 32.3 C24.5 33.5,23.1 33.8,23.1 34.5 C23.1 36.0,24.3 36.8,27.2 37.5 C28.7 37.8,29.5 37.7,32.8 37.0 C34.9 36.5,37.4 36.0,38.4 35.9 L40.3 35.6 40.3 42.9 L40.3 50.2 34.5 51.0 C27.3 52.1,27.3 52.0,27.3 53.0 C27.3 54.6,30.6 56.2,33.2 55.9 C33.9 55.8,37.5 55.3,41.1 54.8 C44.8 54.3,50.5 53.8,53.9 53.6 C60.5 53.2,61.1 53.1,61.6 52.1 C62.1 51.2,61.0 49.9,58.6 48.8 C56.6 47.8,55.1 47.8,51.3 48.5 C49.8 48.8,48.1 49.0,47.4 49.0 L46.2 49.0 46.2 42.0 C46.2 38.2,46.3 35.0,46.5 34.9 C46.8 34.7,51.7 34.2,60.7 33.6 C66.9 33.2,67.1 33.1,67.4 32.0 C67.7 30.9,67.2 30.3,64.7 29.0 C62.4 27.8,61.0 27.8,57.1 28.5 C53.2 29.3,46.8 30.1,46.5 29.8 C46.4 29.7,46.4 26.9,46.5 23.6 C46.8 18.8,47.0 17.3,47.6 15.8 C48.3 14.1,48.3 13.8,47.8 13.1 C47.0 11.9,43.6 10.4,41.1 10.2 C39.1 10.1,38.9 10.1,38.5 10.8 "/>
</svg>
